public/assets/icons/pen-solid.svg

<?xml version="1.0" encoding="utf-8"?>
<!-- Generator: Adobe Illustrator 27.8.1, SVG Export Plug-In . SVG Version: 6.00 Build 0)  -->
<svg version="1.1" id="Layer_1" xmlns="http://www.w3.org/2000/svg" xmlns:xlink="http://www.w3.org/1999/xlink" x="0px" y="0px"
	 viewBox="0 0 512 512" style="enable-background:new 0 0 512 512;" xml:space="preserve">
<style type="text/css">
	.st0{fill:#FFFFFF;}
</style>
<path class="st0" d="M362.7,19.3l-48.4,48.4l130,130l48.4-48.4c25-25,25-65.5,0-90.5l-39.4-39.5C428.3-5.7,387.8-5.7,362.7,19.3
	L362.7,19.3z M291.7,90.3L58.6,323.5c-10.4,10.4-18,23.3-22.2,37.4L1,481.2c-2.5,8.5-0.2,17.6,6,23.8s15.3,8.5,23.7,6.1L151,475.7
	c14.1-4.2,27-11.8,37.4-22.2l233.3-233.2L291.7,90.3z"/>
</svg>

<svg xmlns="http://www.w3.org/2000/svg" viewBox="0 0 512 512"><!--! Font Awesome Pro 6.4.2 by @fontawesome - https://fontawesome.com License - https://fontawesome.com/license (Commercial License) Copyright 2023 Fonticons, Inc. --><path d="M362.7 19.3L314.3 67.7 444.3 197.7l48.4-48.4c25-25 25-65.5 0-90.5L453.3 19.3c-25-25-65.5-25-90.5 0zm-71 71L58.6 323.5c-10.4 10.4-18 23.3-22.2 37.4L1 481.2C-1.5 489.7 .8 498.8 7 505s15.3 8.5 23.7 6.1l120.3-35.4c14.1-4.2 27-11.8 37.4-22.2L421.7 220.3 291.7 90.3z"/></svg>
